src/assets/img/about_factory/goal.svg

<svg width="100" height="105" viewBox="0 0 100 105" fill="none" xmlns="http://www.w3.org/2000/svg">
<g clip-path="url(#clip0)">
<path d="M94.353 14.0145L90.0798 10.0917L94.353 6.1697C95.0176 5.55886 95.2449 4.6068 94.9329 3.74302C94.6193 2.87845 93.8449 2.3201 92.9591 2.3201H75.2758V1.52791C75.2758 0.68402 74.6196 0 73.8102 0C73.0007 0 72.3446 0.68402 72.3446 1.52791V22.1344L60.3077 28.9484C60.2413 28.3964 60.0826 27.8539 59.8316 27.3433L58.1356 23.8914C56.9714 21.5212 54.1744 20.5818 51.9024 21.7948L50.5909 22.4947C49.4892 23.0833 48.6736 24.0823 48.2937 25.3103C47.9138 26.5376 48.0152 27.846 48.5798 28.9937L50.2758 32.4464C50.6718 33.2521 51.257 33.89 51.9451 34.337C51.0449 35.6009 50.6176 37.155 50.1782 38.7696L49.8623 39.9356C49.6418 40.7477 50.095 41.5924 50.874 41.8215C51.0067 41.8612 51.141 41.8795 51.273 41.8795C51.9123 41.8795 52.4998 41.4405 52.6829 40.7668L52.9987 39.6032C53.6411 37.2417 54.0356 35.9771 55.2914 35.266L57.5428 33.991L57.8205 33.8431C57.9128 33.7938 57.999 33.7381 58.0868 33.6832L74.1329 24.5993C74.0314 26.6903 72.9519 28.666 71.1742 29.7915L60.7395 36.401C60.7273 36.4082 60.7151 36.4153 60.7037 36.4233L57.4558 38.4801C56.7646 38.9184 56.5441 39.8585 56.9645 40.5799C57.3605 41.2599 58.1844 41.5017 58.8566 41.1605L56.3923 48.9265L54.591 49.6964L49.6929 51.7891L51.1044 46.5873C51.3241 45.7753 50.8717 44.9306 50.0927 44.7007C49.313 44.47 48.5035 44.9433 48.283 45.7554L46.053 53.9771C46.024 54.0829 46.0049 54.199 46.0003 54.3096L45.4167 65.4862C45.3991 65.9125 45.4861 66.7182 45.2969 67.1342L38.815 81.3507H34.1046C31.345 81.3507 29.1005 83.6906 29.1005 86.5667V90.977C28.4688 90.6756 27.7676 90.507 27.0283 90.507H15.0662C12.3075 90.507 10.0629 92.8462 10.0629 95.723V101.195H6.54422C5.73474 101.195 5.07861 101.879 5.07861 102.723C5.07861 103.567 5.73474 104.251 6.54422 104.251H92.9576C93.7671 104.251 94.4232 103.567 94.4232 102.723C94.4232 101.879 93.7671 101.195 92.9576 101.195H89.146V61.8123C89.146 58.9363 86.9014 56.5963 84.1426 56.5963H75.2758V29.941C76.9008 27.6447 77.5028 24.6351 76.7482 21.7749C76.63 21.3255 76.321 20.9565 75.909 20.7743C75.7068 20.6844 75.4902 20.6447 75.2758 20.6534V17.8641H92.9584C93.8449 17.8641 94.6193 17.3057 94.9321 16.4419C95.2449 15.5782 95.0176 14.6253 94.353 14.0145ZM51.0838 26.2489C51.2234 25.7979 51.5225 25.4304 51.9268 25.2149L53.2383 24.515C53.4855 24.3829 53.7495 24.3201 54.0104 24.3201C54.6284 24.3201 55.2258 24.6724 55.5264 25.2841L57.2231 28.7368C57.6191 29.5433 57.3628 30.5208 56.6586 31.0147L56.181 31.2844L55.1731 31.8228C54.3392 32.2682 53.3123 31.9231 52.8851 31.0529L51.1883 27.601C50.9815 27.1795 50.9442 26.699 51.0838 26.2489ZM48.1388 81.8207C47.6406 81.5837 47.0989 81.4286 46.5298 81.3737L48.1388 79.1459V81.8207ZM55.0976 69.5092C55.8025 68.6287 55.9971 67.6003 56.1543 66.7715C56.1939 66.5742 56.9172 62.4558 56.9172 62.4558C56.9172 62.4558 57.6016 62.9004 57.6733 62.9322C57.7229 62.9553 57.758 63.0062 57.7633 63.0658L58.5606 71.5151H53.6488L55.0976 69.5092ZM63.7646 61.0758L62.5271 71.5079H61.5055L60.6808 62.7668C60.5755 61.6469 59.9178 60.6694 58.9542 60.1834L57.4802 59.2091L58.4621 53.5357C58.4621 53.5357 62.5988 58.6587 62.6949 58.7891C63.5509 59.9496 63.8439 60.4141 63.7646 61.0758ZM47.9336 68.4704C48.2296 67.5414 48.367 66.5957 48.3441 65.6341L48.8766 55.4406L55.6553 52.5447L54.4231 59.6601C54.4193 59.6792 54.4155 59.699 54.4132 59.7181L53.3939 65.6015C53.2612 66.2107 53.1452 67.135 52.7805 67.6368L42.8768 81.3507H42.0605L47.9336 68.4704ZM12.9941 95.7222C12.9941 94.5316 13.9234 93.5628 15.0662 93.5628H27.0283C28.1712 93.5628 29.1012 94.5316 29.1012 95.7222V101.195H12.9941V95.7222ZM32.0317 95.7222V86.5667C32.0317 85.3752 32.9617 84.4065 34.1046 84.4065H46.0667C47.2096 84.4065 48.1388 85.3752 48.1388 86.5667V101.195H32.0324V95.7222H32.0317ZM86.2148 61.8123V101.195H70.1084V92.0341C70.1084 91.1902 69.4523 90.5062 68.6428 90.5062C67.8325 90.5062 67.1764 91.1902 67.1764 92.0341V101.195H51.07V76.7303C51.07 75.5397 51.9993 74.5709 53.1422 74.5709H65.1043C66.2472 74.5709 67.1764 75.5397 67.1764 76.7303V84.3898C67.1764 85.2337 67.8325 85.9177 68.642 85.9177C69.4523 85.9177 70.1076 85.2337 70.1076 84.3898V61.8123C70.1076 60.6209 71.0377 59.6521 72.1805 59.6521H73.7949C73.7995 59.6521 73.8048 59.6529 73.8102 59.6529C73.8147 59.6529 73.8201 59.6521 73.8247 59.6521H84.1419C85.2848 59.6521 86.2148 60.6217 86.2148 61.8123ZM72.1805 56.5963C69.4217 56.5963 67.1772 58.9363 67.1772 61.8123V71.9851C66.6523 71.7354 66.0801 71.5771 65.4781 71.531L66.6736 61.452C66.9086 59.4875 65.9473 58.1854 65.0181 56.9256C64.9197 56.792 59.2228 49.7402 59.2228 49.7402L62.7178 38.7243L72.3446 32.627V56.5963H72.1805ZM75.2758 14.8074V5.37672H90.781L87.4416 8.44208C86.9869 8.85965 86.7259 9.46095 86.7259 10.0925C86.7259 10.724 86.9869 11.3253 87.4416 11.7429L90.781 14.8082H75.2758V14.8074Z" fill="#626262"/>
</g>
<defs>
<clipPath id="clip0">
<rect width="100" height="104.251" fill="white"/>
</clipPath>
</defs>
</svg>

<svg width="100" height="105" fill="none" xmlns="http://www.w3.org/2000/svg"><g clip-path="url(#clip0)"><path d="M94.353 14.014l-4.273-3.922 4.273-3.922a2.246 2.246 0 00.58-2.427c-.314-.865-1.088-1.423-1.974-1.423H75.276v-.792C75.276.684 74.62 0 73.81 0c-.81 0-1.465.684-1.465 1.528v20.606l-12.037 6.814a4.985 4.985 0 00-.476-1.605l-1.696-3.452c-1.165-2.37-3.962-3.31-6.234-2.096l-1.311.7c-1.102.588-1.917 1.587-2.297 2.815a4.978 4.978 0 00.286 3.684l1.696 3.452a4.73 4.73 0 001.67 1.891c-.901 1.264-1.328 2.818-1.768 4.433l-.316 1.166c-.22.812.233 1.656 1.012 1.886.133.04.267.057.399.057.64 0 1.227-.438 1.41-1.112l.316-1.164c.642-2.361 1.037-3.626 2.292-4.337l2.252-1.275.278-.148c.092-.05.178-.105.266-.16L74.133 24.6c-.102 2.091-1.181 4.067-2.959 5.192l-10.435 6.61-.035.022-3.248 2.057c-.691.438-.912 1.379-.492 2.1.397.68 1.22.922 1.893.58l-2.465 7.767-1.801.77-4.898 2.092 1.411-5.202c.22-.812-.232-1.656-1.011-1.886-.78-.231-1.59.242-1.81 1.054l-2.23 8.222a1.525 1.525 0 00-.053.333l-.583 11.176c-.018.426.07 1.232-.12 1.648l-6.482 14.217h-4.71c-2.76 0-5.004 2.34-5.004 5.216v4.41a4.795 4.795 0 00-2.073-.47H15.066c-2.759 0-5.003 2.34-5.003 5.216v5.472H6.544c-.81 0-1.465.684-1.465 1.528s.656 1.528 1.465 1.528h86.414c.81 0 1.465-.684 1.465-1.528s-.656-1.528-1.465-1.528h-3.812V61.812c0-2.876-2.245-5.216-5.003-5.216h-8.867V29.941a9.855 9.855 0 001.472-8.166 1.507 1.507 0 00-.839-1 1.416 1.416 0 00-.633-.122v-2.789h17.682c.887 0 1.661-.558 1.974-1.422a2.246 2.246 0 00-.579-2.428zM51.083 26.25c.14-.451.44-.819.844-1.034l1.311-.7c.248-.132.511-.195.772-.195.618 0 1.216.352 1.516.964l1.697 3.453c.396.806.14 1.784-.564 2.278l-.478.27-1.008.538c-.834.445-1.86.1-2.288-.77L51.188 27.6a1.829 1.829 0 01-.104-1.352zM48.14 81.82a4.817 4.817 0 00-1.61-.447l1.61-2.228v2.675zm6.959-12.312c.705-.88.9-1.909 1.056-2.737.04-.198.763-4.316.763-4.316s.685.444.756.476a.16.16 0 01.09.134l.798 8.45H53.65l1.449-2.007zm8.667-8.433l-1.238 10.432h-1.022l-.824-8.741c-.105-1.12-.763-2.098-1.727-2.584l-1.474-.974.982-5.673s4.137 5.123 4.233 5.253c.856 1.16 1.149 1.625 1.07 2.287zM47.934 68.47a8.608 8.608 0 00.41-2.836l.533-10.193 6.778-2.896-1.232 7.115a.78.78 0 00-.01.058l-1.02 5.883c-.132.61-.248 1.534-.612 2.036L42.877 81.35h-.817l5.874-12.88zm-34.94 27.252c0-1.19.93-2.16 2.072-2.16h11.962c1.143 0 2.073.97 2.073 2.16v5.473H12.994v-5.473zm19.038 0v-9.155c0-1.192.93-2.16 2.073-2.16h11.962c1.143 0 2.072.968 2.072 2.16v14.628H32.032v-5.473zm54.183-33.91v39.383H70.108v-9.16c0-.845-.656-1.529-1.465-1.529-.81 0-1.467.684-1.467 1.528v9.161H51.07V76.73c0-1.19.93-2.16 2.072-2.16h11.962c1.143 0 2.072.97 2.072 2.16v7.66c0 .844.656 1.528 1.466 1.528.81 0 1.466-.684 1.466-1.528V61.812c0-1.191.93-2.16 2.072-2.16h11.962c1.143 0 2.073.97 2.073 2.16zM72.18 56.596c-2.758 0-5.003 2.34-5.003 5.216v10.173a4.8 4.8 0 00-1.699-.454l1.196-10.079c.235-1.965-.727-3.267-1.656-4.526-.098-.134-5.795-7.186-5.795-7.186l3.495-11.016 9.627-6.097v23.97h-.165zm3.096-41.789v-9.43H90.78l-3.34 3.065a2.242 2.242 0 00-.715 1.65c0 .632.26 1.233.716 1.65l3.339 3.066H75.276z" fill="#626262"/></g><defs><clipPath id="clip0"><path fill="#fff" d="M0 0h100v104.251H0z"/></clipPath></defs></svg>
